**kern
*MM76
*k[f#]
*M4/4
=1
1r
=2
1r
=3
1r
=4
1r
=5
1r
=6
1r
=7
1r
=8
1r
=9
1r
=10
1r
=11
r1
=12
2r
8r
8F#
4F#
=13
8r
8F#
4F#
8r
8F#
8BB
8C#
=14
8D
8F#
8B
8C#
8D
8E
8F#
8FF#
=15
4BB
4r
2r
=16
1r
=17
1r
=18
1r
=19
4r
8r
8A
4G
8r
8D#
=20
4E
8r
8D#
4E
8r
8BB
=21
4E
8r
8E
8F#
8G
4D
=22
8E
8D
8C
8BB
4AA
8BB
8AA
=23
8GG
8GG#
4AA
2BB
=24
4E
8r
8E
4A
8r
8B
=25
4c
8r
8c#
4B
8r
8A#
=26
4B
8r
8F#
8B
8A
4G
=27
2F#
4BB
4r
=28
1r
=29
1r
=30
1r
=31
1r
=32
1r
=33
2r
8r
8BB
4BB
*
=34
8r
8BB
4BB
8r
8BB
8EE
8FF#
=35
8GG
8BB
8EE
8FF#
8GG
8AA
4BB
=36
1EE
==
*-
